X:1
T:B minor                   Jeremiah Ingalls, 1805
T:Anonymous author, apparently first appearing in Ingalls 1805       14 12. 14 13.*
T:Song of Moses
T:Transcribed from Ingalls' Christian Harmony, 1805.
%%score [ 1 2 3 ]
L:1/8
Q:1/4=160
M:4/4
K:D
V:1 treble nm="Tr." snm="Tr."
V:2 treble-8 nm="T." snm="T."
V:3 bass nm="B." snm="B."
V:1
"^1. Al–migh–ty love inspires, inspires my heart with sacred fire,  And  a–ni–mates  my soul with desire to renew;        I  love the solemn\n2. Thou tender  hearted  Savior,  thy  love  my  soul   a–ma–zes,  Who di–ed for to save us, when lost and undone;      No che–ru–bim re–" F4 | %1
 B3 B B2 A2 | e4 f2 e2 | d2 d2 c2 B2 | c2 A4 c2 | e2 e2 d2 c2 | d4 c2 A2 | d4 c3 B | c8 | z4 B4 | %10
 d2 c2 B2 d2 | %11
"^1.  prai–ses  on whom bright angels ga–zes,   Where  sympathy in – crea–ses  a – bove  the  ar–ched  blue.\n2. –lieved us, no  angel  could  re –deem us,   And nothing could have saved us,  if  Jesus   had not come." (c2 B2) e2 e2 | %12
 c2 d2 A2 F2 | A2 d4 f2 | d3 d d2 c2 | B4 c2 c2 | f3 e d2 c2 | B8 |] %18
V:2
"^3. O  thou the sin–ner’s  friend, all my simple prayers attend to,  And save me to the end, from the evil to come;       Af–ford  to  me  the\n4. While  here  on  earth  I  stay,  I  will hope for that glad ho–ur,   When I am called away, to the mansions above,       There  to  enjoy  the" (D3 E) | %1
 F3 E F2 A2 | B4 d2 B2 | A2 F2 E2 D2 | F2 E4 A2 | B2 B2 d2 e2 | f4 e2 d2 | B4 e3 f | e8 | z4 d4 | %10
 f2 e2 d2 f2 | %11
"^3. fa  – vor,   that  issues  from  my  Savior,    And  O  forsake  me  ne –ver,  till   all    my   toils   are  o’er.\n4. plea–sure   of  the  un–cea–sing  treasure,   And  shout  in  highest measure  hal –le –lu –jahs   of  love." (e2 d2) B2 B2 | %12
 A2 F2 F2 D2 | F2 A4 A2 | B3 B B2 A2 | d4 e2 f2 | d3 B B2 ^A2 | B8 |] %18
V:3
"^5. In   hopes  of  see–ing   Je – sus, when  all  my conflicts ceases,  My love to him increases,  his  name  I’ll  a – dore;  Then O my blessed\n6. There in the  blooming  garden,  re–gai–ned  by  free  pardon,  Upon the banks of Jordan, I’ll worship the Lamb;   I’ll  sing the song of" D,4 | %1
 B,,3 B,, B,,2 F,2 | E,4 D,2 E,2 | F,2 D,2 A,,2 A,,2 | A,,2 A,,4 A,,2 | E,2 E,2 F,2 A,2 | %6
 D,4 E,2 F,2 | G,4 A,3 A, | A,8- | A,4 B,4 | B,2 A,2 B,2 B,2 | %11
"^5. Sa – vior, vouchsafe to me the  fa–vor,  To  reign with  thee for–ev–er,  when  time  shall  be  no more.\n6. Moses, while Jesus sweet com–po–ses    A  song  that  ne–ver  clo –ses,   in     prai–ses     to    his   name." (A,2 B,2) E,2 E,2 | %12
 F,2 D,2 D,2 D,2 | %13
"^_________________________________________________\n*. Meter of the \nmusic\n is 68. 66. 68. 67 (14 12. 14 13); the first printed stanza is 12 12. 14.13, \n     following stanzas are 14 12. 14 13. Grammar as in the original.\nA folk hymn (Jackson 1952)." D,2 D,4 D,2 | %14
 B,,3 B,, B,,2 F,2 | B,4 A,2 F,2 | D,3 E, F,2 F,2 | B,,8 |] %18

